X:2580
T:High Road to Linton
O:england
M:4/4
L:1/8
R:Reel
K:AMix
d2|:"A"ceef a2 ae|"G"g2 fe "D"fa a2|"A"ceef a2 ae|"D"faec "E7"B2 "A"A2:|
|:"A"ceeg "D"fddf|"A"ecce "Bm"fBBd|"A"ceeg "D"fddf|"A"ecac "G"B2 "A"A2:|
|:"A"a2 a2 ef a2|efae faef|a2 a2 ef ae|"D"fa"A"ec "E7"B2 "A"A2:|
|:"A"cdec "D"defd|"A"cdec "G"BcdB|"A"cdec "D"defg|"A"afec "G"B2 "A"A2:|


